contributed-vectors/clumsy_ninja.svg

<svg xmlns="http://www.w3.org/2000/svg" viewBox="0 0 192 192"><rect width="152" height="152" x="20" y="20" rx="10" style="fill:#fff;stroke:none;opacity:1;stroke-linecap:round;stroke-linejoin:round;isolation:isolate"/><path d="M60 64c-4 0-28 20-24 76 1.425 19.95 8 32 8 32h104s6.575-12.05 8-32c4-56-20-76-24-76s-12 12-12 12-12-4-24-4-24 4-24 4-8-12-12-12z" style="fill:#56595b"/><path d="M40 96s16-12 56-12 56 12 56 12l3.5 16S132 100 96 100s-59 12-59 12z" style="fill:#ff837d;stroke:#ff837d;stroke-width:4;stroke-linecap:round;stroke-linejoin:round;stroke-miterlimit:4;stroke-dasharray:none;stroke-opacity:1"/><path d="M96 104c-48 0-48 32-48 32s0 12 8 36h4c-8-28-8-36-8-36h88s0 8-8 36h4c8-24 8-36 8-36s0-32-48-32z" style="fill:#4a4a4a"/><path d="M96 108c-44 0-44 28-44 28s0 24 44 24 44-24 44-24 0-28-44-28z" style="fill:#fcecdc"/><path d="M96 108c-44 0-44 28-44 28s8-20 44-20 44 20 44 20 0-28-44-28z" style="fill:#ffd6d4"/><rect width="28" height="28" x="64" y="120" ry="14" style="opacity:1;vector-effect:none;fill:#56595b;fill-opacity:1;fill-rule:evenodd;paint-order:stroke fill markers"/><rect width="28" height="28" x="64" y="122" ry="14" style="opacity:1;vector-effect:none;fill:#fff;fill-opacity:1;fill-rule:evenodd;paint-order:stroke fill markers"/><rect width="28" height="28" x="100" y="120" ry="14" style="opacity:1;vector-effect:none;fill:#56595b;fill-opacity:1;fill-rule:evenodd;paint-order:stroke fill markers"/><rect width="28" height="28" x="100" y="122" ry="14" style="opacity:1;vector-effect:none;fill:#fff;fill-opacity:1;fill-rule:evenodd;paint-order:stroke fill markers"/><rect width="16" height="16" x="72" y="128" ry="8" style="opacity:1;vector-effect:none;fill:#98dc9a;fill-opacity:1;fill-rule:evenodd;paint-order:stroke fill markers"/><rect width="8" height="8" x="76" y="132" ry="4" style="opacity:1;vector-effect:none;fill:#4a4a4a;fill-opacity:1;fill-rule:evenodd;paint-order:stroke fill markers"/><rect width="16" height="16" x="104" y="128" ry="8" style="opacity:1;vector-effect:none;fill:#98dc9a;fill-opacity:1;fill-rule:evenodd;paint-order:stroke fill markers"/><rect width="8" height="8" x="108" y="132" ry="4" style="opacity:1;vector-effect:none;fill:#4a4a4a;fill-opacity:1;fill-rule:evenodd;paint-order:stroke fill markers"/><rect width="4" height="4" x="78" y="130" ry="2" style="opacity:1;vector-effect:none;fill:#fff;fill-opacity:1;fill-rule:evenodd;paint-order:stroke fill markers"/><rect width="4" height="4" x="110" y="130" ry="2" style="opacity:1;vector-effect:none;fill:#fff;fill-opacity:1;fill-rule:evenodd;paint-order:stroke fill markers"/></svg>

<?xml version="1.0" encoding="UTF-8" standalone="no"?>
<svg
   xmlns:dc="http://purl.org/dc/elements/1.1/"
   xmlns:cc="http://creativecommons.org/ns#"
   xmlns:rdf="http://www.w3.org/1999/02/22-rdf-syntax-ns#"
   xmlns:svg="http://www.w3.org/2000/svg"
   xmlns="http://www.w3.org/2000/svg"
   xmlns:sodipodi="http://sodipodi.sourceforge.net/DTD/sodipodi-0.dtd"
   xmlns:inkscape="http://www.inkscape.org/namespaces/inkscape"
   viewBox="0 0 192 192"
   version="1.1"
   id="svg16"
   sodipodi:docname="clumsy_ninja.svg"
   inkscape:version="0.92.4 (5da689c313, 2019-01-14)">
  <metadata
     id="metadata20">
    <rdf:RDF>
      <cc:Work
         rdf:about="">
        <dc:format>image/svg+xml</dc:format>
        <dc:type
           rdf:resource="http://purl.org/dc/dcmitype/StillImage" />
        <dc:title></dc:title>
      </cc:Work>
    </rdf:RDF>
  </metadata>
  <sodipodi:namedview
     pagecolor="#ffffff"
     bordercolor="#666666"
     borderopacity="1"
     objecttolerance="10"
     gridtolerance="10"
     guidetolerance="10"
     inkscape:pageopacity="0"
     inkscape:pageshadow="2"
     inkscape:window-width="1920"
     inkscape:window-height="1017"
     id="namedview18"
     showgrid="true"
     inkscape:zoom="3.4766083"
     inkscape:cx="46.545467"
     inkscape:cy="99.427694"
     inkscape:window-x="-8"
     inkscape:window-y="-8"
     inkscape:window-maximized="1"
     inkscape:current-layer="svg16">
    <inkscape:grid
       type="xygrid"
       id="grid827"
       spacingx="4"
       spacingy="4" />
  </sodipodi:namedview>
  <defs
     id="defs4">
    <style
       id="style2">.a{fill:none;stroke:#b1b5bd;stroke-linecap:round;stroke-linejoin:round;isolation:isolate;opacity:0.63;}</style>
  </defs>
  <rect
     class="a"
     x="20"
     y="20"
     width="152"
     height="152"
     rx="10"
     id="rect6"
     style="fill:#ffffff;stroke:none;opacity:1" />
  <path
     style="fill:#56595b"
     d="M 60 64 C 56 64 32 84 36 140 C 37.424941 159.94917 44 172 44 172 L 96 172 L 148 172 C 148 172 154.57506 159.94917 156 140 C 160 84 136 64 132 64 C 128 64 120 76 120 76 C 120 76 108 72 96 72 C 84 72 72 76 72 76 C 72 76 64 64 60 64 z "
     id="path829" />
  <path
     style="fill:#ff837d;stroke:#ff837d;stroke-width:4;stroke-linecap:round;stroke-linejoin:round;stroke-miterlimit:4;stroke-dasharray:none;stroke-opacity:1"
     d="m 40,96 c 0,0 16,-12 56,-12 40,0 56,12 56,12 l 3.5,16 c 0,0 -23.5,-12 -59.5,-12 -36,0 -59,12 -59,12 z"
     id="path831"
     inkscape:connector-curvature="0"
     sodipodi:nodetypes="czcczcc" />
  <path
     style="fill:#4a4a4a"
     d="m 96,104 c -48,0 -48,32 -48,32 0,0 0,12 8,36 h 4 c -8,-28 -8,-36 -8,-36 h 88 c 0,0 0,8 -8,36 h 4 c 8,-24 8,-36 8,-36 0,0 0,-32 -48,-32 z"
     id="path856"
     inkscape:connector-curvature="0"
     sodipodi:nodetypes="zccccccccz" />
  <path
     style="fill:#fcecdc;"
     d="m 96,108 c -44,0 -44,28 -44,28 0,0 0,24 44,24 44,0 44,-24 44,-24 0,0 0,-28 -44,-28 z"
     id="path852"
     inkscape:connector-curvature="0"
     sodipodi:nodetypes="zczcz" />
  <path
     style="fill:#ffd6d4;"
     d="M 96 108 C 52 108 52 136 52 136 C 52 136 60 116 96 116 C 132 116 140 136 140 136 C 140 136 140 108 96 108 z "
     id="path858" />
  <rect
     style="opacity:1;vector-effect:none;fill:#56595b;fill-opacity:1;fill-rule:evenodd;paint-order:stroke fill markers"
     id="rect880"
     width="28"
     height="28"
     x="64"
     y="120"
     ry="14" />
  <rect
     style="opacity:1;vector-effect:none;fill:#ffffff;fill-opacity:1;fill-rule:evenodd;paint-order:stroke fill markers"
     id="rect876"
     width="28"
     height="28"
     x="64"
     y="122"
     ry="14" />
  <rect
     style="opacity:1;vector-effect:none;fill:#56595b;fill-opacity:1;fill-rule:evenodd;paint-order:stroke fill markers"
     id="rect880-4"
     width="28"
     height="28"
     x="100"
     y="120"
     ry="14" />
  <rect
     style="opacity:1;vector-effect:none;fill:#ffffff;fill-opacity:1;fill-rule:evenodd;paint-order:stroke fill markers"
     id="rect878"
     width="28"
     height="28"
     x="100"
     y="122"
     ry="14" />
  <rect
     style="opacity:1;vector-effect:none;fill:#98dc9a;fill-opacity:1;fill-rule:evenodd;paint-order:stroke fill markers"
     id="rect897"
     width="16"
     height="16"
     x="72"
     y="128"
     ry="8" />
  <rect
     style="opacity:1;vector-effect:none;fill:#4a4a4a;fill-opacity:1;fill-rule:evenodd;paint-order:stroke fill markers"
     id="rect899"
     width="8"
     height="8"
     x="76"
     y="132"
     ry="4" />
  <rect
     style="opacity:1;vector-effect:none;fill:#98dc9a;fill-opacity:1;fill-rule:evenodd;paint-order:stroke fill markers"
     id="rect901"
     width="16"
     height="16"
     x="104"
     y="128"
     ry="8" />
  <rect
     style="opacity:1;vector-effect:none;fill:#4a4a4a;fill-opacity:1;fill-rule:evenodd;paint-order:stroke fill markers"
     id="rect903"
     width="8"
     height="8"
     x="108"
     y="132"
     ry="4" />
  <rect
     style="opacity:1;vector-effect:none;fill:#ffffff;fill-opacity:1;fill-rule:evenodd;paint-order:stroke fill markers"
     id="rect907"
     width="4"
     height="4"
     x="78"
     y="130.00005"
     ry="2" />
  <rect
     style="opacity:1;vector-effect:none;fill:#ffffff;fill-opacity:1;fill-rule:evenodd;paint-order:stroke fill markers"
     id="rect909"
     width="4"
     height="4"
     x="110"
     y="130.00005"
     ry="2" />
</svg>
